X:1
T:Vissvētā   Māte
T:Poļu koļenda harm. M. Celminskis
T:Vissvētā   Māte
T:(Gdy śliczna Panna)
C:Poļu koļenda
C:harm. M. Celminskis
%%score { ( 1 2 ) | ( 3 4 ) }
L:1/8
Q:1/4=85
M:4/4
K:Bb
V:1 treble nm="P1"
V:2 treble 
V:3 bass 
V:4 bass 
V:1
!p!"^Liegi, maigi" F4!<(! G2 A2 | B4!<)! B4 | c2 e2 d2 c2 |!>(! c4!>)! B4 :|!mp! d2 c2 d2 B2 | %5
w: 1. svē- tā|Mā- te|sa- vu Dē- lu|ai- jā.|1.\-3. si, ma- zo|
w: 2. gur- dos|plak- stus|aiz- ver sal- dā|mie- gā.||
w: Mā- te To|sar- gā|sa- vā mī- lā|lie- gā.||
w: 3. lī viss|klu- su,|Bēr- niņš mie- gā|gri- mis.||
w: Pa- sau- les|trok- snis|ap- kārt viss jau|ri- mis.||
w: |||||
!>(! c4!>)! c4 | A2 c2 B2 A2 |!>(! G4!>)! F4 |!mp! d2 c2 d2 B2 | e4 e4 | d2 f2 ed cB | %11
w: Bēr- niņ,|du- si, de- bess|jau- kums,|du- * si, *|Bēr- niņ,|du- si, de- * bess *|
w: ||||||
w: ||||||
w: ||||||
w: ||||||
w: |||du- si, ma- zo|Bēr- niņ,||
!>(! c4!>)! !fermata!B4 |] %12
w: jau- kums.|
w: |
w: |
w: |
w: |
w: |
V:2
 D4 E2 F2 | (F2 E2) (D2 F2) | G2 B2 A2 A2 | (G2 A2) F4 :| B2 A2 B2 G2 | A4 A4 | F2 A2 F2 F2 | %7
 E4 F4 | F4 F4 | G4 F4 | F2 B2 cB AG | A4 B4 |] %12
V:3
 B,4 B,2 C2 | B,4 B,4 | B,2 G2 F2 E2 | E4 D4 :| z8 | E2 F2 E2 C2 | E4 D4 | C2 B,2 A,4 | z8 | z8 | %10
w: ||||||||||
w: ||||||||||
w: ||||||||||
w: ||||||||||
w: ||||||||||
w: ||||||||||
w: |||||du- si, ma- zo|Bēr- niņ,|du- * si,|||
 B,2 D2 GF ED | E4 D4 |] %12
w: ||
w: ||
w: ||
w: ||
w: ||
w: ||
w: ||
V:4
 B,2 A,2 G,2 F,E, | D,2 C,2 B,,2 D,2 | E,2 C,2 F,2 F,2 | B,2 F,2 B,,4 :| x8 | z8 | z8 | z8 | %8
w: ||||||||
w: ||||||||
w: ||||||||
w: ||||||||
w: ||||||||
w: ||||||||
w: ||||||||
 B,2 A,2 B,2 G,2 | C2 B,2 A,4 | B,2 G,2 F,2 F,2 | F,4 !fermata![B,,B,]4 |] %12
w: ||||
w: ||||
w: ||||
w: ||||
w: ||||
w: ||||
w: du- si, ma- zo|Bēr- * niņ,|||

